X:1
T:Title
%%score { 1 | 2 }
L:1/8
Q:1/4=132
M:3/2
K:Ab
V:1 treble nm="Grand Piano"
V:2 bass 
V:1
 c2 c2 c4 A4 | [FA]2 [FA]2 [FA]4 [DF]4 | [CE]2 [CE]2 [CEA]4 [Ec]4 | B2 c2 B8 | c2 c2 c4 A4 | %5
w: John~R.~Sweney * * *|||||
 [FA]2 [FA]2 [FA]4 F4 | E2 E2 [EA]4 [Ec]4 | [DB]2 [DB]2 [CA]8 | e2 e2 e4 c4 | [Gd]2 [Gd]2 d4 B4 | %10
w: |||||
 c2 c2 [Ec]4 [EA]4 | B2 c2 B8 | e2 e2 e4 c4 | [Gd]2 [Gd]2 d4 B4 | c2 d2 e4 [Ec]4 | %15
w: |||||
 [DB]2 [DB]2 [CA]8 |] %16
w: |
V:2
 [A,E]2 [A,E]2 [A,E]4 [A,CE]4 | [D,D]2 [D,D]2 [D,D]4 [D,A,]4 | [A,,A,]2 [A,,A,]2 A,,4 [A,,A,]4 | %3
 [E,G,E]2 [E,A,E]2 [E,G,E]8 | [A,E]2 [A,E]2 [A,E]4 [A,CE]4 | [D,D]2 [D,D]2 [D,D]4 [D,A,D]4 | %6
 [E,A,C]2 [E,A,C]2 [C,A,]4 [A,,A,]4 | [E,G,]2 [E,G,]2 [A,,A,]8 | [A,CE]2 [A,CE]2 [A,CE]4 [A,E]4 | %9
 [E,B,]2 [E,B,]2 [E,B,E]4 [G,B,E]4 | [A,E]2 [A,E]2 [A,,A,]4 [C,A,]4 | [E,G,E]2 [E,A,E]2 [E,G,E]8 | %12
 [A,CE]2 [A,CE]2 [A,CE]4 [A,E]4 | [E,B,]2 [E,B,]2 [E,B,E]4 [G,B,E]4 | %14
 [A,E]2 [A,B,E]2 [A,CE]4 [A,,A,]4 | [E,G,]2 [E,G,]2 [A,,A,]8 |] %16

